X: 1
T: Blue Jig
R: jig
Z: John Chambers <jc:trillian.mit.edu>
M: 6/8
L: 1/8
K: Am
|: "Am"A3 cBA | cBA a3 | "Dm"age _edc | "E"d_e=e _edc \
|  "Am"A3 cBA | cBA a3 | "Dm"age cBA | "E"EDC "Am"A,3 :|
|: "D7"^FAB cBA | ^FAB cBA | "A7"^ce^f gfe | ^ce^f gfe \
|: "D7"^FAB cBA | ^FAB cBA | "E"age cBA | "Am"EDC A,3 :|
